web-components-icons/ea00-chart/SVG/line-stacked.svg

<?xml version="1.0" encoding="utf-8"?>
<!-- Generator: Adobe Illustrator 24.2.0, SVG Export Plug-In . SVG Version: 6.00 Build 0)  -->
<svg version="1.1" id="Layer_1" xmlns="http://www.w3.org/2000/svg" xmlns:xlink="http://www.w3.org/1999/xlink" x="0px" y="0px"
	 width="512px" height="512px" viewBox="0 0 512 512" xml:space="preserve">
<path d="M480,448v32H32V32h32v416H480z M224,292l128,64l128-96v-36l-128,96l-128-64L96,352v36L224,292z M224,132l128,92l128-60v-36
	l-128,60L224,96L96,160v36L224,132z"/>
</svg>

<svg xmlns="http://www.w3.org/2000/svg" viewBox="0 0 512 512"><title>line-stacked</title><g id="line_stacked" data-name="line stacked"><path d="M480,448v32H32V32H64V448ZM224,292l128,64,128-96V224L352,320,224,256,96,352v36Zm0-160,128,92,128-60V128L352,188,224,96,96,160v36Z"/></g></svg>
